X:1
T:James Gibb editions
T:Psalm 81 (Becker) - Schütz
%%score [ ( 1 2 ) ( 3 4 ) ]
L:1/8
Q:1/4=100
M:none
K:C
V:1 treble nm="Soprano Alto"
V:2 treble 
V:3 bass nm="Tenor Bass"
V:4 bass 
V:1
"^Cornelius Becker\n(1561-1604)""^Psalm 81, SWV 178""^Heinrich Schütz\n(1585-1672)" G2 FG A2 G2 F2 D2 E4 | %1
w: ~Sin- get mit Freu- den un- serm Gott,|
 c2 Bc d2 c2 (Bc) A2 G4 |[M:4/2] B2 AB G2 G2 (AB) c2 B4 | B2 cd e2 d2 (c2 f2 e2) d2 | c4 |] %5
w: der un- ser Stärk ist in * der Not,|jauchzt sei- nem Na- men al\- * le- samt|und nehmt das Psal- ter- spiel * * zur|Hand.|
V:2
 E2 DE C2 E2 D2 D2 C4 | G2 GE G2 G2 G3 ^F G4 |[M:4/2] G2 ^FG E2 D2 (CB,) E2 E4 | %3
 E2 EG G2 G2 (E2 A2 G2) G2 | G4 |] %5
V:3
 C2 A,C A,2 C2 C2 B,2 C4 | E2 DC B,2 E2 E2 D2 D4 | %2
[M:4/2]"^2. Die Pauken laßt erschallen frei,\nauf Harfen lieblich Melodei,\nblast die Posaun aufs allerbest,\ndem Herrn zu feiern dieses Fest.\n\n7. Merk auf, mein Volk, und auf mich hör,\ndies Zeugnis deine Kinder lehr,\ndu sollst kein andre Götter han,\nallein mich sollst du rufen an.\n\n8. Ich bin der Herr, dein Gott genannt,\nder dich führt aus Ägyptenland,\nruf mich an, was dein Herz begehrt,\ndas soll dir sein von mir gewährt.\n\n13. Ewig dies mein Volk bleiben soll,\naufs Beste ich sie speisen will\nmit Honig aus dem Felsen hart\nund mit Weizen von bester Art." D2 DD C2 G,2 E,3 ^F, ^G,4 | %3
 ^G,2 A,B, C2 B,2 (A,2 C4) B,2 | C4 |] %5
V:4
 C,2 D,C, F,2 E,2 F,2 G,2 C,4 | C,2 G,A, G,2 C,2 (E,C,) D,2 G,,4 | %2
[M:4/2] G,2 D,G, C,2 B,,2 (A,,^G,,) A,,2 E,4 | E,2 A,=G, C,2 G,2 (A,2 F,2 C,2) G,2 | C,4 |] %5

